apps/24/plasmagik.svg

<?xml version="1.0" encoding="UTF-8" standalone="no"?>
<!-- Created with Inkscape (http://www.inkscape.org/) -->

<svg
   xmlns:dc="http://purl.org/dc/elements/1.1/"
   xmlns:cc="http://creativecommons.org/ns#"
   xmlns:rdf="http://www.w3.org/1999/02/22-rdf-syntax-ns#"
   xmlns:svg="http://www.w3.org/2000/svg"
   xmlns="http://www.w3.org/2000/svg"
   xmlns:sodipodi="http://sodipodi.sourceforge.net/DTD/sodipodi-0.dtd"
   xmlns:inkscape="http://www.inkscape.org/namespaces/inkscape"
   sodipodi:docname="plasmagik.svg"
   inkscape:version="0.48.4 r9939"
   version="1.1"
   id="svg13094"
   height="24"
   width="24">
  <sodipodi:namedview
     id="base"
     pagecolor="#ffffff"
     bordercolor="#666666"
     borderopacity="1.0"
     inkscape:pageopacity="0.0"
     inkscape:pageshadow="2"
     inkscape:zoom="22.627418"
     inkscape:cx="10.60846"
     inkscape:cy="12.890171"
     inkscape:document-units="px"
     inkscape:current-layer="layer1"
     showgrid="true"
     inkscape:snap-bbox="true"
     inkscape:bbox-paths="true"
     inkscape:bbox-nodes="true"
     inkscape:snap-bbox-edge-midpoints="true"
     inkscape:snap-bbox-midpoints="true"
     inkscape:object-paths="true"
     inkscape:snap-intersection-paths="true"
     inkscape:object-nodes="true"
     inkscape:snap-smooth-nodes="true"
     inkscape:snap-midpoints="true"
     inkscape:snap-object-midpoints="true"
     inkscape:snap-center="true"
     showguides="false"
     inkscape:guide-bbox="true"
     inkscape:window-width="1920"
     inkscape:window-height="1018"
     inkscape:window-x="-5"
     inkscape:window-y="25"
     inkscape:window-maximized="1"
     inkscape:snap-global="true"
     fit-margin-top="0"
     fit-margin-left="0"
     fit-margin-right="0"
     fit-margin-bottom="0"
     showborder="true"
     inkscape:showpageshadow="false">
    <sodipodi:guide
       orientation="0,1"
       position="7904.3893,1688.6364"
       id="guide16149" />
    <sodipodi:guide
       orientation="0,1"
       position="7677.2464,1639.6277"
       id="guide16151" />
    <sodipodi:guide
       orientation="0,1"
       position="7742.9606,1664.132"
       id="guide16153" />
    <sodipodi:guide
       orientation="0,1"
       position="7736.5321,1583.9848"
       id="guide17725" />
    <sodipodi:guide
       orientation="1,0"
       position="8234.0303,1192.115"
       id="guide9456" />
    <sodipodi:guide
       orientation="0,1"
       position="8058.2804,1557.1639"
       id="guide9458" />
    <sodipodi:guide
       orientation="0,1"
       position="7829.5106,1502.2585"
       id="guide9468" />
    <sodipodi:guide
       orientation="0,1"
       position="7854.0304,1523.6285"
       id="guide9470" />
    <sodipodi:guide
       orientation="1,0"
       position="7722.0304,1237.629"
       id="guide11159" />
    <sodipodi:guide
       orientation="1,0"
       position="8035.0616,1501.6635"
       id="guide13980" />
    <sodipodi:guide
       id="guide3972"
       position="6181.0305,126.62899"
       orientation="0,1" />
    <sodipodi:guide
       id="guide3974"
       position="6361.0305,-1.3710498"
       orientation="1,0" />
    <sodipodi:guide
       id="guide3976"
       position="6055.0305,-236.37095"
       orientation="0,1" />
    <sodipodi:guide
       id="guide3978"
       position="6028.0305,-95.37105"
       orientation="1,0" />
    <sodipodi:guide
       id="guide4287"
       position="1377.8013,1369.629"
       orientation="1,0" />
    <sodipodi:guide
       id="guide4289"
       position="1377.8013,1369.629"
       orientation="0,1" />
    <inkscape:grid
       type="xygrid"
       id="grid3918"
       empspacing="5"
       visible="true"
       enabled="true"
       snapvisiblegridlinesonly="true"
       originx="0.00017297285px"
       originy="71.999982px" />
  </sodipodi:namedview>
  <defs
     id="defs13096" />
  <metadata
     id="metadata13099">
    <rdf:RDF>
      <cc:Work
         rdf:about="">
        <dc:format>image/svg+xml</dc:format>
        <dc:type
           rdf:resource="http://purl.org/dc/dcmitype/StillImage" />
        <dc:title />
      </cc:Work>
    </rdf:RDF>
  </metadata>
  <g
     inkscape:label="Camada 1"
     inkscape:groupmode="layer"
     id="layer1"
     transform="translate(9368.675,-1536.5613)">
    <path
       style="color:#000000;fill:#f1f3f5;fill-opacity:0.90288714000000003;fill-rule:nonzero;stroke:none;stroke-width:2;marker:none;visibility:visible;display:inline;overflow:visible;enable-background:accumulate"
       d="M 9 2 L 9 3 L 10 3 L 10 2 L 9 2 z M 10 3 L 10 4 L 11 4 L 11 3 L 10 3 z M 11 3 L 12 3 L 12 2 L 11 2 L 11 3 z M 11 4 L 11 5 L 12 5 L 12 4 L 11 4 z M 10 4 L 9 4 L 9 5 L 10 5 L 10 4 z M 14.09375 3.03125 A 0.49982374 0.50027636 0.0002498317 0 0 13.78125 3.5 L 13.5 6.25 L 11.34375 7.96875 A 0.49982374 0.50027636 0.0002498317 0 0 11.4375 8.8125 L 12.09375 9.09375 L 3.09375 18.09375 L 5.90625 20.90625 L 14.78125 12.03125 L 14.96875 12.53125 A 0.49982374 0.50027636 0.0002498317 0 0 15.46875 12.84375 A 0.49982374 0.50027636 0.0002498317 0 0 15.8125 12.6875 L 17.65625 10.5625 L 20.40625 10.4375 A 0.49982374 0.50027636 0.0002498317 0 0 20.84375 9.6875 L 19.375 7.34375 L 20.15625 4.625 A 0.49982374 0.50027636 0.0002498317 0 0 19.90625 4.03125 A 0.49982374 0.50027636 0.0002498317 0 0 19.53125 4 L 16.84375 4.65625 L 14.5 3.09375 A 0.49982374 0.50027636 0.0002498317 0 0 14.21875 3.03125 A 0.49982374 0.50027636 0.0002498317 0 0 14.15625 3.03125 A 0.49982374 0.50027636 0.0002498317 0 0 14.09375 3.03125 z M 14.6875 4.40625 L 16.4375 5.59375 A 0.49982374 0.50027636 0 0 0 16.5 5.625 A 0.49982374 0.50027636 0.0002498317 0 0 16.53125 5.65625 A 0.49982374 0.50027636 0 0 0 16.59375 5.6875 A 0.49982374 0.50027636 0.0002498317 0 0 16.625 5.6875 A 0.49982374 0.50027636 0 0 0 16.6875 5.6875 A 0.49982374 0.50027636 0.0002498317 0 0 16.71875 5.6875 A 0.49982374 0.50027636 0 0 0 16.78125 5.6875 A 0.49982374 0.50027636 0.0002498317 0 0 16.8125 5.6875 A 0.49982374 0.50027636 0 0 0 16.84375 5.6875 L 18.96875 5.1875 L 18.375 7.28125 A 0.49982374 0.50027636 0 0 0 18.375 7.3125 A 0.49982374 0.50027636 0.0002498317 0 0 18.375 7.34375 A 0.49982374 0.50027636 0 0 0 18.375 7.40625 A 0.49982374 0.50027636 0.0002498317 0 0 18.375 7.4375 A 0.49982374 0.50027636 0 0 0 18.375 7.46875 A 0.49982374 0.50027636 0 0 0 18.4375 7.65625 L 19.53125 9.5 L 17.375 9.59375 A 0.49982374 0.50027636 0.0002498317 0 0 17.34375 9.59375 A 0.49982374 0.50027636 0 0 0 17.28125 9.59375 A 0.49982374 0.50027636 0.0002498317 0 0 17.21875 9.625 A 0.49982374 0.50027636 0 0 0 17.15625 9.65625 A 0.49982374 0.50027636 0.0002498317 0 0 17.125 9.65625 A 0.49982374 0.50027636 0 0 0 17.03125 9.75 L 15.59375 11.375 L 14.84375 9.34375 A 0.49982374 0.50027636 0 0 0 14.8125 9.3125 A 0.49982374 0.50027636 0.0002498317 0 0 14.8125 9.28125 A 0.49982374 0.50027636 0 0 0 14.65625 9.125 A 0.49982374 0.50027636 0.0002498317 0 0 14.625 9.125 A 0.49982374 0.50027636 0 0 0 14.59375 9.09375 L 12.59375 8.25 L 14.28125 6.90625 A 0.49982374 0.50027636 0 0 0 14.375 6.78125 A 0.49982374 0.50027636 0.0002498317 0 0 14.4375 6.71875 A 0.49982374 0.50027636 0 0 0 14.4375 6.65625 A 0.49982374 0.50027636 0.0002498317 0 0 14.46875 6.625 A 0.49982374 0.50027636 0 0 0 14.46875 6.5625 A 0.49982374 0.50027636 0.0002498317 0 0 14.46875 6.53125 L 14.6875 4.40625 z M 3 6 L 3 7 L 4 7 L 4 6 L 3 6 z M 4 7 L 4 8 L 5 8 L 5 7 L 4 7 z M 5 7 L 6 7 L 6 6 L 5 6 L 5 7 z M 5 8 L 5 9 L 6 9 L 6 8 L 5 8 z M 4 8 L 3 8 L 3 9 L 4 9 L 4 8 z M 12.71875 9.84375 L 14.125 11.25 L 5.90625 19.5 L 4.5 18.0625 L 12.71875 9.84375 z M 19 13 L 19 14 L 20 14 L 20 13 L 19 13 z M 20 14 L 20 15 L 21 15 L 21 14 L 20 14 z M 21 14 L 22 14 L 22 13 L 21 13 L 21 14 z M 21 15 L 21 16 L 22 16 L 22 15 L 21 15 z M 20 15 L 19 15 L 19 16 L 20 16 L 20 15 z "
       transform="translate(-9368.675,1536.5613)"
       id="rect3844" />
    <path
       style="color:#000000;fill:#27303a;fill-opacity:0.75328081999999996;fill-rule:nonzero;stroke:none;stroke-width:2;marker:none;visibility:visible;display:inline;overflow:visible;enable-background:accumulate"
       d="M 10 2 L 10 3 L 11 3 L 11 2 L 10 2 z M 11 3 L 11 4 L 12 4 L 12 3 L 11 3 z M 11 4 L 10 4 L 10 5 L 11 5 L 11 4 z M 10 4 L 10 3 L 9 3 L 9 4 L 10 4 z M 14.6875 4.40625 L 14.46875 6.53125 A 0.49982374 0.50027636 0.00024983167 0 1 14.28125 6.90625 L 12.59375 8.25 L 14.59375 9.09375 A 0.49982374 0.50027636 0.00024983167 0 1 14.84375 9.34375 L 15.59375 11.375 L 17.03125 9.75 A 0.49982374 0.50027636 0.00024983167 0 1 17.375 9.59375 L 19.53125 9.5 L 18.4375 7.65625 A 0.49982374 0.50027636 0.00024983167 0 1 18.375 7.46875 A 0.49982374 0.50027636 0.00024983167 0 1 18.375 7.28125 L 18.96875 5.1875 L 16.84375 5.6875 A 0.49982374 0.50027636 0.00024983167 0 1 16.4375 5.59375 L 14.6875 4.40625 z M 4 6 L 4 7 L 5 7 L 5 6 L 4 6 z M 5 7 L 5 8 L 6 8 L 6 7 L 5 7 z M 5 8 L 4 8 L 4 9 L 5 9 L 5 8 z M 4 8 L 4 7 L 3 7 L 3 8 L 4 8 z M 12.71875 9.84375 L 4.5 18.0625 L 5.90625 19.5 L 14.125 11.25 L 12.71875 9.84375 z M 20 13 L 20 14 L 21 14 L 21 13 L 20 13 z M 21 14 L 21 15 L 22 15 L 22 14 L 21 14 z M 21 15 L 20 15 L 20 16 L 21 16 L 21 15 z M 20 15 L 20 14 L 19 14 L 19 15 L 20 15 z "
       transform="translate(-9368.675,1536.5613)"
       id="path3072" />
  </g>
</svg>

<?xml version="1.0" encoding="UTF-8"?>
<svg id="a" width="24" height="24" version="1.1" xmlns="http://www.w3.org/2000/svg" xmlns:cc="http://creativecommons.org/ns#" xmlns:dc="http://purl.org/dc/elements/1.1/" xmlns:rdf="http://www.w3.org/1999/02/22-rdf-syntax-ns#">
	<metadata id="d">
		<rdf:RDF>
			<cc:Work rdf:about="">
				<dc:format>image/svg+xml</dc:format>
				<dc:type rdf:resource="http://purl.org/dc/dcmitype/StillImage"/>
				<dc:title/>
			</cc:Work>
		</rdf:RDF>
	</metadata>
	<defs>
		<style id="current-color-scheme" type="text/css">.ColorScheme-Text {color:#090d11;}.ColorScheme-Background{color:#ffffff;}</style>
	</defs>
	<g id="b" transform="translate(9368.7 -1536.6)">
		<path id="c" transform="translate(-9368.7 1536.6)" d="m10 2v1h1v-1h-1zm1 1v1h1v-1h-1zm0 1h-1v1h1v-1zm-1 0v-1h-1v1h1zm4.6875 0.40625l-0.21875 2.125a0.49982 0.50028 2.4983e-4 0 1 -0.1875 0.375l-1.6875 1.3438 2 0.84375a0.49982 0.50028 2.4983e-4 0 1 0.25 0.25l0.75 2.0312 1.4375-1.625a0.49982 0.50028 2.4983e-4 0 1 0.34375 -0.15625l2.1562-0.09375-1.0938-1.8438a0.49982 0.50028 2.4983e-4 0 1 -0.0625 -0.1875 0.49982 0.50028 2.4983e-4 0 1 0 -0.1875l0.59375-2.0938-2.125 0.5a0.49982 0.50028 2.4983e-4 0 1 -0.40625 -0.09375l-1.75-1.1875zm-10.688 1.5938v1h1v-1h-1zm1 1v1h1v-1h-1zm0 1h-1v1h1v-1zm-1 0v-1h-1v1h1zm8.7188 1.8438l-8.2188 8.2188 1.4062 1.4375 8.2188-8.25-1.4062-1.4062zm7.2812 3.1562v1h1v-1h-1zm1 1v1h1v-1h-1zm0 1h-1v1h1v-1zm-1 0v-1h-1v1h1z" style="fill-opacity:.75;fill:currentColor" class="ColorScheme-Text"/>
		<path id="e" transform="translate(-9368.7 1536.6)" d="m9 2v1h1v-1h-1zm1 1v1h1v-1h-1zm1 0h1v-1h-1v1zm0 1v1h1v-1h-1zm-1 0h-1v1h1v-1zm4.0938-0.96875a0.49982 0.50028 2.4983e-4 0 0 -0.3125 0.46875l-0.28125 2.75-2.1562 1.7188a0.49982 0.50028 2.4983e-4 0 0 0.09375 0.84375l0.65625 0.28125-9 9 2.8125 2.8125 8.875-8.875 0.1875 0.5a0.49982 0.50028 2.4983e-4 0 0 0.5 0.3125 0.49982 0.50028 2.4983e-4 0 0 0.34375 -0.15625l1.8438-2.125 2.75-0.125a0.49982 0.50028 2.4983e-4 0 0 0.4375 -0.75l-1.4688-2.3438 0.78125-2.7188a0.49982 0.50028 2.4983e-4 0 0 -0.25 -0.59375 0.49982 0.50028 2.4983e-4 0 0 -0.375 -0.03125l-2.6875 0.65625-2.3438-1.5625a0.49982 0.50028 2.4983e-4 0 0 -0.28125 -0.0625 0.49982 0.50028 2.4983e-4 0 0 -0.0625 0 0.49982 0.50028 2.4983e-4 0 0 -0.0625 0zm0.59375 1.375l1.75 1.1875a0.49982 0.50028 0 0 0 0.0625 0.03125 0.49982 0.50028 2.4983e-4 0 0 0.03125 0.03125 0.49982 0.50028 0 0 0 0.0625 0.03125 0.49982 0.50028 2.4983e-4 0 0 0.03125 0 0.49982 0.50028 0 0 0 0.0625 0 0.49982 0.50028 2.4983e-4 0 0 0.03125 0 0.49982 0.50028 0 0 0 0.0625 0 0.49982 0.50028 2.4983e-4 0 0 0.03125 0 0.49982 0.50028 0 0 0 0.03125 0l2.125-0.5-0.59375 2.0938a0.49982 0.50028 0 0 0 0 0.03125 0.49982 0.50028 2.4983e-4 0 0 0 0.03125 0.49982 0.50028 0 0 0 0 0.0625 0.49982 0.50028 2.4983e-4 0 0 0 0.03125 0.49982 0.50028 0 0 0 0 0.03125 0.49982 0.50028 0 0 0 0.0625 0.1875l1.0938 1.8438-2.1562 0.09375a0.49982 0.50028 2.4983e-4 0 0 -0.03125 0 0.49982 0.50028 0 0 0 -0.0625 0 0.49982 0.50028 2.4983e-4 0 0 -0.0625 0.03125 0.49982 0.50028 0 0 0 -0.0625 0.03125 0.49982 0.50028 2.4983e-4 0 0 -0.03125 0 0.49982 0.50028 0 0 0 -0.09375 0.09375l-1.4375 1.625-0.75-2.0312a0.49982 0.50028 0 0 0 -0.03125 -0.03125 0.49982 0.50028 2.4983e-4 0 0 0 -0.03125 0.49982 0.50028 0 0 0 -0.15625 -0.15625 0.49982 0.50028 2.4983e-4 0 0 -0.03125 0 0.49982 0.50028 0 0 0 -0.03125 -0.03125l-2-0.84375 1.6875-1.3438a0.49982 0.50028 0 0 0 0.09375 -0.125 0.49982 0.50028 2.4983e-4 0 0 0.0625 -0.0625 0.49982 0.50028 0 0 0 0 -0.0625 0.49982 0.50028 2.4983e-4 0 0 0.03125 -0.03125 0.49982 0.50028 0 0 0 0 -0.0625 0.49982 0.50028 2.4983e-4 0 0 0 -0.03125l0.21875-2.125zm-11.688 1.5938v1h1v-1h-1zm1 1v1h1v-1h-1zm1 0h1v-1h-1v1zm0 1v1h1v-1h-1zm-1 0h-1v1h1v-1zm8.7188 1.8438l1.4062 1.4062-8.2188 8.25-1.4062-1.4375 8.2188-8.2188zm6.2812 3.1562v1h1v-1h-1zm1 1v1h1v-1h-1zm1 0h1v-1h-1v1zm0 1v1h1v-1h-1zm-1 0h-1v1h1v-1z" style="fill-opacity:.5;fill:currentColor" class="ColorScheme-Background"/>
	</g>
</svg>
